MA3T1/127/aimg/balon.svg

<svg clip-rule="evenodd" fill-rule="evenodd" stroke-linejoin="round" stroke-miterlimit="2" viewBox="0 0 214 214" xmlns="http://www.w3.org/2000/svg" xmlns:xlink="http://www.w3.org/1999/xlink"><radialGradient id="a" cx="0" cy="0" gradientTransform="matrix(-.999632 -.0271087 -.0271087 .999632 .5028 .006816)" gradientUnits="userSpaceOnUse" r="1"><stop offset="0" stop-color="#fff"/><stop offset=".6" stop-color="#fff"/><stop offset="1" stop-color="#cbdde6"/></radialGradient><path d="m24.61-24.61c13.592 0 24.609 11.018 24.609 24.61 0 13.591-11.017 24.61-24.609 24.61s-24.61-11.019-24.61-24.61c0-13.592 11.018-24.61 24.61-24.61" fill="#bacad3" fill-rule="nonzero" transform="matrix(0 4.16667 4.16667 0 106.761 4.5572)"/><circle cx=".25" cy=".092" fill="url(#a)" r="1.023" transform="matrix(0 -93.3947 93.3947 0 96.561 122.8572)"/><g fill-rule="nonzero"><path d="m0 3.923c.489-.387 1.665-1.254 3.161-1.939.801 1.442 1.868 2.774 2.882 4.062 1.32 1.68 2.72 3.386 4.383 4.742-.015 2.331 1.801 6.563 2.541 8.15 1.719 1.934 5.97 3.158 8.265 3.768-.018.064-.023.133.001.213.38 1.243 1.077 2.476 2.134 3.242-5.282-.166-10.14-2.029-14.05-5.062.892-.148 1.748-.59 2.542-.982.197-.098.252-.378.146-.557-.116-.199-.36-.244-.557-.146-.954.471-1.99 1.027-3.089.902-4.699-4.044-7.831-9.854-8.359-16.393m24.945 22.237c-.051-.096-.139-.173-.249-.209-1.399-.458-2.248-1.882-2.662-3.203 1.757-.326 6.542-1.836 7.795-3.924-3.024-2.835-6.046-7.783-6.989-9.389.033-.052.059-.11.066-.183.191-1.538.59-3.065.983-4.561.466-1.776.973-3.568 1.697-5.259.204-.477-.498-.891-.705-.41-.752 1.756-1.293 3.605-1.778 5.452-.393 1.499-.769 3.023-.977 4.562-3.225.945-8.412 1.112-11.076 1.218-1.655-1.336-3.042-3.026-4.355-4.688-1.045-1.322-2.15-2.696-2.946-4.19-.021-.041-.05-.066-.078-.093-.603-4.133 1.039-7.661 2.688-11.398-.753-.753-1.194-2.279-1.324-2.789 4.436-5.685 11.344-9.353 19.098-9.353 13.353 0 24.218 10.865 24.218 24.219 0 1.181-.09 2.34-.253 3.476-.42.231-1.227.637-2.067.86-.812-1.682-1.714-3.324-2.74-4.888-1.073-1.637-2.28-3.235-3.773-4.514-.396-.34-.976.234-.577.576 1.484 1.271 2.676 2.852 3.735 4.484 1.039 1.599 1.954 3.28 2.774 5.001-.51 2.654-1.698 7.131-3.505 9.352-3.446.934-6.913 2.211-10.521 2.259-.525.007-.525.822 0 .814 3.62-.046 7.093-1.288 10.552-2.235.111.349.184.662.231.911-4.27 4.79-10.41 7.874-17.262 8.102m-26.369-24.198c0 14.092 11.465 25.556 25.557 25.556 14.091 0 25.556-11.464 25.556-25.556 0-14.091-11.465-25.557-25.556-25.557-14.092 0-25.557 11.466-25.557 25.557" fill="#231f20" transform="matrix(4.16667 0 0 4.16667 6.261 98.9572)"/><path d="m0 1.499c-.478-.016-.967-.099-1.409-.148-.983-.11-1.977-.259-2.967-.249-2.463.022-5.092.296-7.415 1.137-.494.18-.707-.608-.217-.786 2.349-.85 4.914-1.05 7.396-1.16.935-.041 1.881.094 2.809.197.58.067 1.311.244 1.947.217 1.776-2.135 6.107-4.739 8.182-5.517-.311-.484-.656-.951-1.018-1.394-.721-.885-1.524-1.731-2.437-2.421-.176-.133-.267-.352-.147-.558.101-.173.381-.279.558-.145.973.735 1.833 1.603 2.603 2.548.496.609.975 1.249 1.374 1.93 1.235.461 5.282 2.062 8.407 4.347.596-.402 1.397-.541 2.082-.64.893-.13 1.821-.216 2.721-.114.219.024.408.169.408.407 0 .201-.187.432-.408.407-.805-.09-1.641-.033-2.443.076-.416.058-.834.136-1.24.251-.081.023-.162.048-.243.076-.045.015-.09.031-.135.048.002 0-.064.027-.078.032-.017.008-.033.017-.05.025 1.528 3.604 1.522 7.503.847 9.187-4.14-.114-9.342.911-13.253 1.709-2.359-2.573-5.086-6.959-5.874-9.462" fill="#231f20" transform="matrix(4.16667 0 0 4.16667 87.861 46.6572)"/><path d="m0-5.22s-5.315-3.62-8.55-4.39c-3.543 1.694-7.01 3.774-8.011 5.237 2.311 5.084 4.008 8.071 5.01 8.763 3.466-.923 10.626-2.215 12.321-1.676.462-1.772-.154-6.316-.77-7.934" fill="#1375bc" transform="matrix(4.16667 0 0 4.16667 161.261 69.8572)"/><path d="m-2.686-14.274s-.335 1.3-.819 1.53c1.036 2.171 2.028 8.003.819 11.199 1.749.851 1.949 1.328 2.253 1.821.401-4.359.331-9.086-2.253-14.55" fill="#1375bc" transform="matrix(-4.12433 -.592463 -.592463 4.12433 4.961 107.6572)"/><path d="m0-11.636s3.261 5.929 6.374 8.523c-2.224 1.556-5.04 2.891-6.82 3.113-2.223-.816-5.928-1.853-7.781-3.262-.593-1.334-2.002-4.223-2.669-7.633 3.41.149 7.931-.148 10.896-.741" fill="#1375bc" transform="matrix(4.16667 0 0 4.16667 98.261 190.5572)"/><path d="m-.308-9.441s-1.042 7.058.412 10.2c-.278.279-.412.585-.412.585s-2.33-5.833-1.421-12.145c.468.469 1.421 1.36 1.421 1.36" fill="#1375bc" transform="matrix(-3.95242 -1.31889 -1.31889 3.95242 185.061 165.9572)"/></g></svg>

<?xml version="1.0" encoding="UTF-8" standalone="no"?>
<!DOCTYPE svg PUBLIC "-//W3C//DTD SVG 1.1//EN" "http://www.w3.org/Graphics/SVG/1.1/DTD/svg11.dtd">
<svg width="100%" height="100%" viewBox="0 0 214 214" version="1.1" xmlns="http://www.w3.org/2000/svg" xmlns:xlink="http://www.w3.org/1999/xlink" xml:space="preserve" xmlns:serif="http://www.serif.com/" style="fill-rule:evenodd;clip-rule:evenodd;stroke-linejoin:round;stroke-miterlimit:2;">
    <g transform="matrix(1,0,0,1,-108,-38)">
        <g transform="matrix(1,0,0,1,-17047.7,-12559.6)">
            <g transform="matrix(1,0,0,1,108.261,-61.7428)">
                <g transform="matrix(0,4.16667,4.16667,0,17154.2,12663.9)">
                    <g>
                        <path d="M24.61,-24.61C38.202,-24.61 49.219,-13.592 49.219,0C49.219,13.591 38.202,24.61 24.61,24.61C11.018,24.61 0,13.591 0,0C0,-13.592 11.018,-24.61 24.61,-24.61" style="fill:rgb(186,202,211);fill-rule:nonzero;"/>
                    </g>
                </g>
                <g transform="matrix(-1.7116e-14,-93.3947,93.3947,-1.7116e-14,17144,12782.2)">
                    <g>
                        <circle cx="0.25" cy="0.092" r="1.023" style="fill:url(#_Radial1);"/>
                    </g>
                </g>
                <g transform="matrix(4.16667,0,0,4.16667,17053.7,12758.3)">
                    <g>
                        <path d="M0,3.923C0.489,3.536 1.665,2.669 3.161,1.984C3.962,3.426 5.029,4.758 6.043,6.046C7.363,7.726 8.763,9.432 10.426,10.788C10.411,13.119 12.227,17.351 12.967,18.938C14.686,20.872 18.937,22.096 21.232,22.706C21.214,22.77 21.209,22.839 21.233,22.919C21.613,24.162 22.31,25.395 23.367,26.161C18.085,25.995 13.227,24.132 9.317,21.099C10.209,20.951 11.065,20.509 11.859,20.117C12.056,20.019 12.111,19.739 12.005,19.56C11.889,19.361 11.645,19.316 11.448,19.414C10.494,19.885 9.458,20.441 8.359,20.316C3.66,16.272 0.528,10.462 0,3.923M24.945,26.16C24.894,26.064 24.806,25.987 24.696,25.951C23.297,25.493 22.448,24.069 22.034,22.748C23.791,22.422 28.576,20.912 29.829,18.824C26.805,15.989 23.783,11.041 22.84,9.435C22.873,9.383 22.899,9.325 22.906,9.252C23.097,7.714 23.496,6.187 23.889,4.691C24.355,2.915 24.862,1.123 25.586,-0.568C25.79,-1.045 25.088,-1.459 24.881,-0.978C24.129,0.778 23.588,2.627 23.103,4.474C22.71,5.973 22.334,7.497 22.126,9.036C18.901,9.981 13.714,10.148 11.05,10.254C9.395,8.918 8.008,7.228 6.695,5.566C5.65,4.244 4.545,2.87 3.749,1.376C3.728,1.335 3.699,1.31 3.671,1.283C3.068,-2.85 4.71,-6.378 6.359,-10.115C5.606,-10.868 5.165,-12.394 5.035,-12.904C9.471,-18.589 16.379,-22.257 24.133,-22.257C37.486,-22.257 48.351,-11.392 48.351,1.962C48.351,3.143 48.261,4.302 48.098,5.438C47.678,5.669 46.871,6.075 46.031,6.298C45.219,4.616 44.317,2.974 43.291,1.41C42.218,-0.227 41.011,-1.825 39.518,-3.104C39.122,-3.444 38.542,-2.87 38.941,-2.528C40.425,-1.257 41.617,0.324 42.676,1.956C43.715,3.555 44.63,5.236 45.45,6.957C44.94,9.611 43.752,14.088 41.945,16.309C38.499,17.243 35.032,18.52 31.424,18.568C30.899,18.575 30.899,19.39 31.424,19.382C35.044,19.336 38.517,18.094 41.976,17.147C42.087,17.496 42.16,17.809 42.207,18.058C37.937,22.848 31.797,25.932 24.945,26.16M-1.424,1.962C-1.424,16.054 10.041,27.518 24.133,27.518C38.224,27.518 49.689,16.054 49.689,1.962C49.689,-12.129 38.224,-23.595 24.133,-23.595C10.041,-23.595 -1.424,-12.129 -1.424,1.962" style="fill:rgb(35,31,32);fill-rule:nonzero;"/>
                    </g>
                </g>
                <g transform="matrix(4.16667,0,0,4.16667,17135.3,12706)">
                    <g>
                        <path d="M0,1.499C-0.478,1.483 -0.967,1.4 -1.409,1.351C-2.392,1.241 -3.386,1.092 -4.376,1.102C-6.839,1.124 -9.468,1.398 -11.791,2.239C-12.285,2.419 -12.498,1.631 -12.008,1.453C-9.659,0.603 -7.094,0.403 -4.612,0.293C-3.677,0.252 -2.731,0.387 -1.803,0.49C-1.223,0.557 -0.492,0.734 0.144,0.707C1.92,-1.428 6.251,-4.032 8.326,-4.81C8.015,-5.294 7.67,-5.761 7.308,-6.204C6.587,-7.089 5.784,-7.935 4.871,-8.625C4.695,-8.758 4.604,-8.977 4.724,-9.183C4.825,-9.356 5.105,-9.462 5.282,-9.328C6.255,-8.593 7.115,-7.725 7.885,-6.78C8.381,-6.171 8.86,-5.531 9.259,-4.85C10.494,-4.389 14.541,-2.788 17.666,-0.503C18.262,-0.905 19.063,-1.044 19.748,-1.143C20.641,-1.273 21.569,-1.359 22.469,-1.257C22.688,-1.233 22.877,-1.088 22.877,-0.85C22.877,-0.649 22.69,-0.418 22.469,-0.443C21.664,-0.533 20.828,-0.476 20.026,-0.367C19.61,-0.309 19.192,-0.231 18.786,-0.116C18.705,-0.093 18.624,-0.068 18.543,-0.04C18.498,-0.025 18.453,-0.009 18.408,0.008C18.41,0.008 18.344,0.035 18.33,0.04C18.313,0.048 18.297,0.057 18.28,0.065C19.808,3.669 19.802,7.568 19.127,9.252C14.987,9.138 9.785,10.163 5.874,10.961C3.515,8.388 0.788,4.002 0,1.499" style="fill:rgb(35,31,32);fill-rule:nonzero;"/>
                    </g>
                </g>
                <g transform="matrix(4.16667,0,0,4.16667,17208.7,12729.2)">
                    <g>
                        <path d="M0,-5.22C0,-5.22 -5.315,-8.84 -8.55,-9.61C-12.093,-7.916 -15.56,-5.836 -16.561,-4.373C-14.25,0.711 -12.553,3.698 -11.551,4.39C-8.085,3.467 -0.925,2.175 0.77,2.714C1.232,0.942 0.616,-3.602 0,-5.22" style="fill:rgb(19,117,188);fill-rule:nonzero;"/>
                    </g>
                </g>
                <g transform="matrix(-4.12433,-0.592463,-0.592463,4.12433,17052.4,12767)">
                    <g>
                        <path d="M-2.686,-14.274C-2.686,-14.274 -3.021,-12.974 -3.505,-12.744C-2.469,-10.573 -1.477,-4.741 -2.686,-1.545C-0.937,-0.694 -0.737,-0.217 -0.433,0.276C-0.032,-4.083 -0.102,-8.81 -2.686,-14.274" style="fill:rgb(19,117,188);fill-rule:nonzero;"/>
                    </g>
                </g>
                <g transform="matrix(4.16667,0,0,4.16667,17145.7,12849.9)">
                    <g>
                        <path d="M0,-11.636C0,-11.636 3.261,-5.707 6.374,-3.113C4.15,-1.557 1.334,-0.222 -0.446,0C-2.669,-0.816 -6.374,-1.853 -8.227,-3.262C-8.82,-4.596 -10.229,-7.485 -10.896,-10.895C-7.486,-10.746 -2.965,-11.043 0,-11.636" style="fill:rgb(19,117,188);fill-rule:nonzero;"/>
                    </g>
                </g>
                <g transform="matrix(-3.95242,-1.31889,-1.31889,3.95242,17232.5,12825.3)">
                    <g>
                        <path d="M-0.308,-9.441C-0.308,-9.441 -1.35,-2.383 0.104,0.759C-0.174,1.038 -0.308,1.344 -0.308,1.344C-0.308,1.344 -2.638,-4.489 -1.729,-10.801C-1.261,-10.332 -0.308,-9.441 -0.308,-9.441" style="fill:rgb(19,117,188);fill-rule:nonzero;"/>
                    </g>
                </g>
            </g>
        </g>
    </g>
    <defs>
        <radialGradient id="_Radial1" cx="0" cy="0" r="1" gradientUnits="userSpaceOnUse" gradientTransform="matrix(-0.999632,-0.0271087,-0.0271087,0.999632,0.5028,0.00681637)"><stop offset="0" style="stop-color:white;stop-opacity:1"/><stop offset="0.6" style="stop-color:white;stop-opacity:1"/><stop offset="1" style="stop-color:rgb(203,221,230);stop-opacity:1"/></radialGradient>
    </defs>
</svg>
